public/logos/DX.svg

<?xml version="1.0" encoding="UTF-8"?>
<svg xmlns="http://www.w3.org/2000/svg" xmlns:xlink="http://www.w3.org/1999/xlink" width="160pt" height="56.63pt" viewBox="0 0 160 56.63" version="1.1">
<defs>
<clipPath id="clip1">
  <path d="M 0 0 L 57 0 L 57 56.628906 L 0 56.628906 Z M 0 0 "/>
</clipPath>
<clipPath id="clip2">
  <path d="M 0 0 L 59 0 L 59 56.628906 L 0 56.628906 Z M 0 0 "/>
</clipPath>
<clipPath id="clip3">
  <path d="M 26 36 L 42 36 L 42 56.628906 L 26 56.628906 Z M 26 36 "/>
</clipPath>
</defs>
<g id="surface1">
<g clip-path="url(#clip1)" clip-rule="nonzero">
<path style=" stroke:none;fill-rule:nonzero;fill:rgb(100%,100%,100%);fill-opacity:1;" d="M 56.316406 28.316406 C 56.316406 43.777344 43.777344 56.316406 28.316406 56.316406 C 12.851562 56.316406 0.316406 43.777344 0.316406 28.316406 C 0.316406 12.851562 12.851562 0.316406 28.316406 0.316406 C 43.777344 0.316406 56.316406 12.851562 56.316406 28.316406 "/>
</g>
<g clip-path="url(#clip2)" clip-rule="nonzero">
<path style="fill:none;stroke-width:6.3;stroke-linecap:butt;stroke-linejoin:miter;stroke:rgb(100%,100%,100%);stroke-opacity:1;stroke-miterlimit:2.5;" d="M 563.164062 283.135938 C 563.164062 128.526563 437.773438 3.135938 283.164062 3.135938 C 128.515625 3.135938 3.164062 128.526563 3.164062 283.135938 C 3.164062 437.784375 128.515625 563.135938 283.164062 563.135938 C 437.773438 563.135938 563.164062 437.784375 563.164062 283.135938 Z M 563.164062 283.135938 " transform="matrix(0.1,0,0,-0.1,0,56.63)"/>
</g>
<path style=" stroke:none;fill-rule:nonzero;fill:rgb(96.769714%,62.890625%,7.014465%);fill-opacity:1;" d="M 36.425781 27.484375 C 40.1875 30.449219 43.359375 33.328125 45.652344 35.828125 C 47.777344 34.933594 52.058594 33.289062 55.765625 32.695312 C 56.621094 27.308594 55.859375 21.777344 53.609375 16.832031 L 36.425781 27.484375 "/>
<path style=" stroke:none;fill-rule:nonzero;fill:rgb(97.041321%,81.854248%,4.264832%);fill-opacity:1;" d="M 46.386719 49.445312 C 48.125 47.960938 49.707031 46.230469 51.078125 44.265625 C 52.453125 42.308594 53.535156 40.230469 54.34375 38.085938 L 48.777344 42.65625 L 46.386719 49.445312 "/>
<g clip-path="url(#clip3)" clip-rule="nonzero">
<path style=" stroke:none;fill-rule:nonzero;fill:rgb(17.720032%,29.504395%,64.567566%);fill-opacity:1;" d="M 41.289062 42.054688 C 38.15625 40.757812 34.367188 38.761719 30.292969 36.242188 L 26.175781 56.011719 C 31.582031 56.433594 37.039062 55.257812 41.804688 52.617188 C 41.101562 48.949219 41.1875 44.359375 41.289062 42.054688 "/>
</g>
<path style=" stroke:none;fill-rule:nonzero;fill:rgb(83.154297%,11.882019%,15.325928%);fill-opacity:1;" d="M 20.371094 54.335938 C 19.601562 53.386719 20.382812 34.464844 20.589844 29.5625 C 11.117188 22.378906 5.011719 14.695312 5.4375 12.644531 C -3.160156 25.179688 -0.0742188 42.347656 12.414062 51.074219 C 15.207031 53.03125 18.238281 54.402344 21.351562 55.210938 C 20.90625 54.875 20.558594 54.574219 20.371094 54.335938 "/>
<path style=" stroke:none;fill-rule:nonzero;fill:rgb(18.441772%,62.072754%,39.601135%);fill-opacity:1;" d="M 26.84375 20.640625 C 31.355469 18.765625 48.890625 11.554688 50.046875 11.957031 C 50.328125 12.050781 50.742188 12.285156 51.203125 12.578125 C 49.378906 9.925781 47.054688 7.546875 44.261719 5.589844 C 31.769531 -3.148438 14.597656 -0.183594 5.757812 12.183594 C 7.53125 11.09375 16.855469 14.1875 26.84375 20.640625 "/>
<path style=" stroke:none;fill-rule:nonzero;fill:rgb(83.154297%,11.882019%,15.325928%);fill-opacity:1;" d="M 84.746094 10.058594 C 86.695312 10.058594 89.28125 10.15625 90.648438 10.253906 C 93.523438 10.496094 96.011719 11.570312 98.058594 13.617188 C 101.179688 16.691406 102.691406 21.03125 102.691406 27.128906 C 102.691406 31.757812 101.570312 35.808594 99.277344 38.878906 C 97.230469 41.660156 94.207031 43.511719 91.035156 43.757812 C 89.769531 43.855469 88.160156 43.953125 86.160156 43.953125 L 77.917969 43.953125 L 77.917969 10.058594 Z M 84.84375 38.390625 L 88.5 38.390625 C 92.988281 38.390625 95.035156 34.929688 95.035156 27.761719 C 95.035156 23.8125 94.695312 20.496094 93.328125 18.25 C 92.207031 16.398438 90.648438 15.421875 87.964844 15.421875 L 84.84375 15.421875 L 84.84375 38.390625 "/>
<path style=" stroke:none;fill-rule:nonzero;fill:rgb(83.154297%,11.882019%,15.325928%);fill-opacity:1;" d="M 124.738281 9.960938 L 135.417969 43.953125 L 128.101562 43.953125 L 125.714844 35.90625 L 115.765625 35.90625 L 113.375 43.953125 L 106.253906 43.953125 L 117.371094 9.960938 Z M 124.054688 30.25 C 124.054688 30.25 122.933594 26.6875 122.203125 23.421875 C 121.859375 21.859375 120.835938 17.421875 120.835938 17.421875 C 120.835938 17.421875 119.859375 21.421875 119.226562 23.957031 C 118.59375 26.394531 118.152344 28.003906 117.421875 30.25 L 124.054688 30.25 "/>
<path style=" stroke:none;fill-rule:nonzero;fill:rgb(83.154297%,11.882019%,15.325928%);fill-opacity:1;" d="M 160 10.058594 L 158.878906 15.714844 L 150.785156 15.714844 L 150.785156 43.953125 L 143.859375 43.953125 L 143.859375 15.714844 L 135.570312 15.714844 L 135.570312 10.058594 L 160 10.058594 "/>
</g>
</svg>

<svg xmlns="http://www.w3.org/2000/svg" width="160pt" height="75.507" viewBox="0 0 160 56.63"><defs><clipPath id="a"><path d="M0 0h57v56.629H0Zm0 0"/></clipPath><clipPath id="b"><path d="M0 0h59v56.629H0Zm0 0"/></clipPath><clipPath id="c"><path d="M26 36h16v20.629H26Zm0 0"/></clipPath></defs><g clip-path="url(#a)"><path d="M56.316 28.316c0 15.461-12.539 28-28 28-15.464 0-28-12.539-28-28 0-15.464 12.536-28 28-28 15.461 0 28 12.536 28 28" style="stroke:none;fill-rule:nonzero;fill:#fff;fill-opacity:1"/></g><g clip-path="url(#b)"><path d="M563.164 283.136c0-154.61-125.39-280-280-280-154.648 0-280 125.39-280 280 0 154.648 125.352 280 280 280 154.61 0 280-125.352 280-280Zm0 0" style="fill:none;stroke-width:6.3;stroke-linecap:butt;stroke-linejoin:miter;stroke:#fff;stroke-opacity:1;stroke-miterlimit:2.5" transform="matrix(.1 0 0 -.1 0 56.63)"/></g><path d="M36.426 27.484c3.761 2.965 6.933 5.844 9.226 8.344 2.125-.894 6.407-2.539 10.114-3.133a27.83 27.83 0 0 0-2.157-15.863z" style="stroke:none;fill-rule:nonzero;fill:#f7a012;fill-opacity:1"/><path d="M46.387 49.445a27.5 27.5 0 0 0 4.691-5.18 27.8 27.8 0 0 0 3.266-6.18l-5.567 4.571z" style="stroke:none;fill-rule:nonzero;fill:#f7d10b;fill-opacity:1"/><g clip-path="url(#c)"><path d="M41.29 42.055c-3.134-1.297-6.923-3.293-10.997-5.813l-4.117 19.77a27.84 27.84 0 0 0 15.629-3.395c-.703-3.668-.617-8.258-.516-10.562" style="stroke:none;fill-rule:nonzero;fill:#2d4ba5;fill-opacity:1"/></g><path d="M20.371 54.336c-.77-.95.012-19.871.219-24.773-9.473-7.184-15.578-14.868-15.152-16.918-8.598 12.535-5.512 29.703 6.976 38.43a27.7 27.7 0 0 0 8.938 4.136c-.446-.336-.793-.637-.98-.875" style="stroke:none;fill-rule:nonzero;fill:#d41e27;fill-opacity:1"/><path d="M26.844 20.64c4.511-1.874 22.047-9.085 23.203-8.683.281.094.695.328 1.156.621a27.7 27.7 0 0 0-6.941-6.988C31.77-3.148 14.598-.184 5.758 12.184c1.773-1.09 11.097 2.004 21.086 8.457" style="stroke:none;fill-rule:nonzero;fill:#2f9e65;fill-opacity:1"/><path d="M84.746 10.059c1.95 0 4.535.097 5.902.195 2.875.242 5.364 1.316 7.41 3.363 3.122 3.074 4.633 7.414 4.633 13.512 0 4.629-1.12 8.68-3.414 11.75-2.047 2.781-5.07 4.633-8.242 4.879a62 62 0 0 1-4.875.195h-8.242V10.06Zm.098 28.332H88.5c4.488 0 6.535-3.461 6.535-10.63 0-3.948-.34-7.265-1.707-9.511-1.121-1.852-2.68-2.828-5.363-2.828h-3.121zM124.738 9.96l10.68 33.993h-7.316l-2.387-8.047h-9.95l-2.39 8.047h-7.121L117.37 9.961Zm-.683 20.29s-1.121-3.562-1.852-6.828c-.344-1.563-1.367-6-1.367-6s-.977 4-1.61 6.535c-.632 2.438-1.074 4.047-1.804 6.293zM160 10.059l-1.121 5.656h-8.094v28.238h-6.926V15.715h-8.289v-5.656z" style="stroke:none;fill-rule:nonzero;fill:#d41e27;fill-opacity:1"/></svg>
